images/protection.svg

<svg width="65" height="64" viewBox="0 0 65 64" fill="none" xmlns="http://www.w3.org/2000/svg">
<path d="M41.5652 37.6961C43.9174 37.6961 46.2431 38.2844 48.2912 39.3974C48.6631 39.5979 49.0044 39.8368 49.3529 40.0667C52.7142 33.4869 54.488 26.5278 54.488 19.7388C54.488 19.3573 54.488 18.9634 54.4758 18.5696C54.4512 18.0158 54.0573 17.5358 53.5034 17.4127C46.0696 15.7881 39.3373 11.7634 34.045 5.78193L33.2573 4.88342C33.0234 4.61268 32.6912 4.465 32.3342 4.465C31.9527 4.41579 31.6573 4.60036 31.4234 4.85885L30.2173 6.1881C25.1958 11.7142 18.8696 15.5296 11.9281 17.2281L11.1281 17.425C10.5865 17.5481 10.205 18.0281 10.1927 18.5819C9.74962 35.8865 19.965 48.3296 24.3712 52.8834C25.5641 54.1082 26.8941 55.3256 28.1588 56.3319C27.6844 54.9011 27.4113 53.3957 27.4113 51.8499C27.4113 44.0452 33.7605 37.6961 41.5652 37.6961Z" fill="url(#paint0_linear_22728_11401)"/>
<path d="M47.1156 41.5593C45.4172 40.6363 43.4972 40.1562 41.5649 40.1562C35.1156 40.1562 29.8726 45.3993 29.8726 51.8486C29.8726 54.027 30.4634 56.1562 31.5957 57.9778C33.7495 61.4609 37.4665 63.5409 41.5649 63.5409C48.0018 63.5409 53.2572 58.2978 53.2572 51.8486C53.2572 47.5409 50.9064 43.6024 47.1156 41.5593ZM47.5531 50.2918L38.4082 57.4084L35.2862 52.5249C34.9197 51.9522 35.0873 51.1914 35.66 50.8254C36.2334 50.4588 36.9948 50.6277 37.3596 51.1992L39.0272 53.8074L46.0411 48.3495C46.5765 47.9318 47.3505 48.0273 47.7682 48.5646C48.1859 49.1013 48.0891 49.8747 47.5531 50.2918Z" fill="url(#paint1_linear_22728_11401)"/>
<defs>
<linearGradient id="paint0_linear_22728_11401" x1="32.3334" y1="4.45703" x2="32.3334" y2="56.3319" gradientUnits="userSpaceOnUse">
<stop stop-color="#EF8080"/>
<stop offset="1" stop-color="#F0145A"/>
</linearGradient>
<linearGradient id="paint1_linear_22728_11401" x1="41.5649" y1="40.1562" x2="41.5649" y2="63.5409" gradientUnits="userSpaceOnUse">
<stop stop-color="#EF8080"/>
<stop offset="1" stop-color="#F0145A"/>
</linearGradient>
</defs>
</svg>

<svg xmlns="http://www.w3.org/2000/svg" width="65" height="64" fill="none"><path fill="url(#a)" d="M41.565 37.696c2.352 0 4.678.588 6.726 1.701.372.2.713.44 1.062.67 3.361-6.58 5.135-13.54 5.135-20.328 0-.382 0-.776-.012-1.17a1.244 1.244 0 0 0-.973-1.156c-7.433-1.625-14.166-5.65-19.458-11.631l-.788-.899a1.207 1.207 0 0 0-.923-.418c-.381-.05-.677.135-.91.394l-1.207 1.33c-5.021 5.525-11.347 9.34-18.289 11.04l-.8.196a1.21 1.21 0 0 0-.935 1.157C9.75 35.886 19.965 48.33 24.37 52.883a41.698 41.698 0 0 0 3.788 3.449 14.227 14.227 0 0 1-.748-4.482c0-7.805 6.35-14.154 14.154-14.154Z"/><path fill="url(#b)" d="M47.116 41.56a11.654 11.654 0 0 0-5.551-1.404c-6.45 0-11.692 5.243-11.692 11.693 0 2.178.59 4.307 1.723 6.129 2.153 3.483 5.87 5.563 9.969 5.563 6.437 0 11.692-5.243 11.692-11.692 0-4.308-2.35-8.247-6.141-10.29Zm.437 8.732-9.145 7.116-3.122-4.883a1.23 1.23 0 1 1 2.074-1.326l1.667 2.608 7.014-5.458a1.23 1.23 0 1 1 1.512 1.943Z"/><defs><linearGradient id="a" x1="32.333" x2="32.333" y1="4.457" y2="56.332" gradientUnits="userSpaceOnUse"><stop stop-color="#EF8080"/><stop offset="1" stop-color="#F0145A"/></linearGradient><linearGradient id="b" x1="41.565" x2="41.565" y1="40.156" y2="63.541" gradientUnits="userSpaceOnUse"><stop stop-color="#EF8080"/><stop offset="1" stop-color="#F0145A"/></linearGradient></defs></svg>
